icon/ir/horiz-distribution-right.svg

<svg stroke-width="1.5" viewBox="0 0 24 24" fill="none" xmlns="http://www.w3.org/2000/svg" height="1em" width="1em">
  <path d="M5 17V7M5 17H10.4C10.7314 17 11 16.7314 11 16.4V7.6C11 7.26863 10.7314 7 10.4 7H5M5 17V20M5 7V4" stroke="currentColor" stroke-linecap="round" stroke-linejoin="round"/>
  <path d="M15 17V7M15 17H18.4C18.7314 17 19 16.7314 19 16.4V7.6C19 7.26863 18.7314 7 18.4 7H15M15 17V20M15 7V4" stroke="currentColor" stroke-linecap="round" stroke-linejoin="round"/>
</svg>

<svg width="24" height="24" stroke-width="1.5" fill="none" xmlns="http://www.w3.org/2000/svg"><path d="M5 17V7m0 10h5.4a.6.6 0 0 0 .6-.6V7.6a.6.6 0 0 0-.6-.6H5m0 10v3M5 7V4M15 17V7m0 10h3.4a.6.6 0 0 0 .6-.6V7.6a.6.6 0 0 0-.6-.6H15m0 10v3m0-13V4" stroke="currentColor" stroke-linecap="round" stroke-linejoin="round"/></svg>
